icon-themes/elementary_svg/cmd/sc_combine.svg

<?xml version="1.0" encoding="UTF-8" standalone="no"?>
<svg
   xmlns:dc="http://purl.org/dc/elements/1.1/"
   xmlns:cc="http://creativecommons.org/ns#"
   xmlns:rdf="http://www.w3.org/1999/02/22-rdf-syntax-ns#"
   xmlns:svg="http://www.w3.org/2000/svg"
   xmlns="http://www.w3.org/2000/svg"
   xmlns:xlink="http://www.w3.org/1999/xlink"
   xmlns:sodipodi="http://sodipodi.sourceforge.net/DTD/sodipodi-0.dtd"
   xmlns:inkscape="http://www.inkscape.org/namespaces/inkscape"
   version="1.1"
   width="16"
   height="16"
   id="svg7435"
   sodipodi:docname="sc_combine.svg"
   inkscape:version="0.92.3 (unknown)"
   inkscape:export-filename="/home/rizmut/Dokumen/Rizmut/Github/libreoffice-style-elementary/images_elementary/cmd/sc_combine.png"
   inkscape:export-xdpi="96"
   inkscape:export-ydpi="96">
  <sodipodi:namedview
     pagecolor="#ffffff"
     bordercolor="#666666"
     borderopacity="1"
     objecttolerance="10"
     gridtolerance="10"
     guidetolerance="10"
     inkscape:pageopacity="0"
     inkscape:pageshadow="2"
     inkscape:window-width="1366"
     inkscape:window-height="706"
     id="namedview8"
     showgrid="false"
     inkscape:zoom="14.75"
     inkscape:cx="-0.71186441"
     inkscape:cy="8"
     inkscape:window-x="0"
     inkscape:window-y="0"
     inkscape:window-maximized="1"
     inkscape:current-layer="svg7435" />
  <defs
     id="defs7437">
    <linearGradient
       id="linearGradient27416-1-5">
      <stop
         id="stop27420-2-2"
         style="stop-color:#64baff;stop-opacity:1"
         offset="0" />
      <stop
         id="stop27422-3-2"
         style="stop-color:#3689e6;stop-opacity:1"
         offset="1" />
    </linearGradient>
    <linearGradient
       inkscape:collect="always"
       xlink:href="#linearGradient27416-1-5"
       id="linearGradient839"
       x1="7.7288136"
       y1="-0.13559322"
       x2="7.9322033"
       y2="15.457627"
       gradientUnits="userSpaceOnUse" />
  </defs>
  <metadata
     id="metadata7440">
    <rdf:RDF>
      <cc:Work
         rdf:about="">
        <dc:format>image/svg+xml</dc:format>
        <dc:type
           rdf:resource="http://purl.org/dc/dcmitype/StillImage" />
        <dc:title></dc:title>
      </cc:Work>
    </rdf:RDF>
  </metadata>
  <g
     id="layer1">
    <path
       d="m 10,0.5 c -2.8672686,0 -5.2156077,2.1982965 -5.46875,5 l 5.96875,0 0,5.96875 C 13.301703,11.215608 15.5,8.8672695 15.5,6 15.5,2.9639991 13.036,0.50000001 10,0.5 z m 0.5,10.96875 C 10.335127,11.483647 10.168732,11.5 10,11.5 6.9639996,11.5 4.5,9.0360009 4.5,6 4.5,5.8312684 4.5163532,5.6648732 4.53125,5.5 L 0.5,5.5 l 0,10 10,0 0,-4.03125 z"
       id="rect8333"
       style="fill:url(#linearGradient839);fill-opacity:1;stroke:#002e99;stroke-width:1;stroke-linecap:butt;stroke-linejoin:round;stroke-miterlimit:0;stroke-opacity:1;stroke-dasharray:none;stroke-dashoffset:0" />
    <path
       d="M 10,1.5 C 7.5160004,1.5 5.4999999,3.5160002 5.5,6 c 0,0.1716882 0.043749,0.3332944 0.0625,0.5 l -4.0625,0 0,8 8,0 0,-4.0625 C 9.6667056,10.456251 9.8283118,10.5 10,10.5 12.484,10.5 14.5,8.4839998 14.5,6 14.5,3.5160002 12.484,1.5 10,1.5 z"
       id="rect8337"
       style="opacity:0.3;fill:none;stroke:#ffffff;stroke-width:1;stroke-linecap:butt;stroke-linejoin:round;stroke-miterlimit:0;stroke-opacity:1;stroke-dasharray:none;stroke-dashoffset:0" />
  </g>
</svg>

<svg xmlns="http://www.w3.org/2000/svg" xmlns:xlink="http://www.w3.org/1999/xlink" width="16" height="16"><defs><linearGradient id="a"><stop offset="0" stop-color="#64baff"/><stop offset="1" stop-color="#3689e6"/></linearGradient><linearGradient xlink:href="#a" id="b" x1="7.729" y1="-.136" x2="7.932" y2="15.458" gradientUnits="userSpaceOnUse"/></defs><g stroke-linejoin="round" stroke-miterlimit="0"><path d="M10 .5c-2.867 0-5.216 2.198-5.47 5h5.97v5.97c2.802-.254 5-2.603 5-5.47 0-3.036-2.464-5.5-5.5-5.5zm.5 10.97c-.165.014-.33.03-.5.03-3.036 0-5.5-2.464-5.5-5.5 0-.17.016-.335.03-.5H.5v10h10v-4.03z" fill="url(#b)" stroke="#002e99"/><path d="M10 1.5C7.516 1.5 5.5 3.516 5.5 6c0 .172.044.333.063.5H1.5v8h8v-4.063c.167.02.328.063.5.063 2.484 0 4.5-2.016 4.5-4.5S12.484 1.5 10 1.5z" opacity=".3" fill="none" stroke="#fff"/></g></svg>
